X:1
T:Blanchard's Minuet
C:T. S. Macdonald
M:3/4
L:1/8
K:D
D2 A2 F2 | GFED E2 | dc BA GF | EFEC A,2 | DF Ad fa | CE Ac ea | gf ag fg | !trill!e6 ||
a2 f2 d2 | ABcd e2 | fb fd Bd | cdec A2 | gf ed cB | ag fe dc | (3 bag f2 !trill!e2 | d6 |]

